static/img/kroki/28144eecb53caa9d9162145bb71c8f45.svg

<?xml version="1.0" encoding="us-ascii" standalone="no"?><svg xmlns="http://www.w3.org/2000/svg" xmlns:xlink="http://www.w3.org/1999/xlink" contentStyleType="text/css" height="252px" preserveAspectRatio="none" style="width:370px;height:252px;" version="1.1" viewBox="0 0 370 252" width="370px" zoomAndPan="magnify"><defs/><g><!--class azure_authorization_role_assignment--><g id="elem_azure_authorization_role_assignment"><rect codeLine="23" fill="#3D176E" height="39.7891" id="azure_authorization_role_assignment" rx="2.5" ry="2.5" style="stroke:#000D19;stroke-width:0.5;" width="356" x="7" y="206.58"/><ellipse cx="22" cy="226.4745" fill="#ADD1B2" rx="11" ry="11" style="stroke:#181818;stroke-width:1.0;"/><path d="M24.9688,232.1152 Q24.3906,232.412 23.75,232.5527 Q23.1094,232.7089 22.4063,232.7089 Q19.9063,232.7089 18.5781,231.0683 Q17.2656,229.412 17.2656,226.287 Q17.2656,223.162 18.5781,221.5058 Q19.9063,219.8495 22.4063,219.8495 Q23.1094,219.8495 23.75,220.0058 Q24.4063,220.162 24.9688,220.4589 L24.9688,223.1777 Q24.3438,222.5995 23.75,222.3339 Q23.1563,222.0527 22.5313,222.0527 Q21.1875,222.0527 20.5,223.1308 Q19.8125,224.1933 19.8125,226.287 Q19.8125,228.3808 20.5,229.4589 Q21.1875,230.5214 22.5313,230.5214 Q23.1563,230.5214 23.75,230.2558 Q24.3438,229.9745 24.9688,229.3964 L24.9688,232.1152 Z " fill="#000000"/><text fill="#D9B8FF" font-family="Helvetica" font-size="17" lengthAdjust="spacing" textLength="314" x="41" y="232.3598">azure_authorization_role_assignment</text></g><!--class azure_resource_group--><g id="elem_azure_resource_group"><rect codeLine="26" fill="#3D176E" height="39.7891" id="azure_resource_group" rx="2.5" ry="2.5" style="stroke:#000D19;stroke-width:0.5;" width="225" x="72.5" y="7"/><ellipse cx="87.5" cy="26.8945" fill="#ADD1B2" rx="11" ry="11" style="stroke:#181818;stroke-width:1.0;"/><path d="M90.4688,32.5352 Q89.8906,32.832 89.25,32.9727 Q88.6094,33.1289 87.9063,33.1289 Q85.4063,33.1289 84.0781,31.4883 Q82.7656,29.832 82.7656,26.707 Q82.7656,23.582 84.0781,21.9258 Q85.4063,20.2695 87.9063,20.2695 Q88.6094,20.2695 89.25,20.4258 Q89.9063,20.582 90.4688,20.8789 L90.4688,23.5977 Q89.8438,23.0195 89.25,22.7539 Q88.6563,22.4727 88.0313,22.4727 Q86.6875,22.4727 86,23.5508 Q85.3125,24.6133 85.3125,26.707 Q85.3125,28.8008 86,29.8789 Q86.6875,30.9414 88.0313,30.9414 Q88.6563,30.9414 89.25,30.6758 Q89.8438,30.3945 90.4688,29.8164 L90.4688,32.5352 Z " fill="#000000"/><text fill="#D9B8FF" font-family="Helvetica" font-size="17" lengthAdjust="spacing" textLength="183" x="106.5" y="32.7798">azure_resource_group</text></g><!--class microsoft_resource--><g id="elem_microsoft_resource"><rect codeLine="29" fill="#3D176E" height="39.7891" id="microsoft_resource" rx="2.5" ry="2.5" style="stroke:#000D19;stroke-width:0.5;" width="200" x="162" y="106.79"/><ellipse cx="177" cy="126.6845" fill="#ADD1B2" rx="11" ry="11" style="stroke:#181818;stroke-width:1.0;"/><path d="M179.9688,132.3252 Q179.3906,132.622 178.75,132.7627 Q178.1094,132.9189 177.4063,132.9189 Q174.9063,132.9189 173.5781,131.2783 Q172.2656,129.622 172.2656,126.497 Q172.2656,123.372 173.5781,121.7158 Q174.9063,120.0595 177.4063,120.0595 Q178.1094,120.0595 178.75,120.2158 Q179.4063,120.372 179.9688,120.6689 L179.9688,123.3877 Q179.3438,122.8095 178.75,122.5439 Q178.1563,122.2627 177.5313,122.2627 Q176.1875,122.2627 175.5,123.3408 Q174.8125,124.4033 174.8125,126.497 Q174.8125,128.5908 175.5,129.6689 Q176.1875,130.7314 177.5313,130.7314 Q178.1563,130.7314 178.75,130.4658 Q179.3438,130.1845 179.9688,129.6064 L179.9688,132.3252 Z " fill="#000000"/><text fill="#D9B8FF" font-family="Helvetica" font-size="17" lengthAdjust="spacing" textLength="158" x="196" y="132.5698">microsoft_resource</text></g><!--link azure_resource_group to azure_authorization_role_assignment--><g id="link_azure_resource_group_azure_authorization_role_assignment"><path codeLine="32" d="M171.56,47.27 C161.76,62.63 149.31,85.05 144,106.79 C139.8,123.97 139.8,129.4 144,146.58 C149.31,168.32 158.5313,185.6928 168.3313,201.0428 " fill="none" id="azure_resource_group-to-azure_authorization_role_assignment" style="stroke:#1A83AF;stroke-width:2.0;"/><polygon fill="#1A83AF" points="171.56,206.1,170.0884,196.3617,168.8694,201.8857,163.3455,200.6667,171.56,206.1" style="stroke:#1A83AF;stroke-width:2.0;"/></g><!--link azure_resource_group to microsoft_resource--><g id="link_azure_resource_group_microsoft_resource"><path codeLine="33" d="M200.21,47.22 C213.71,64.36 229.6192,84.5551 243.1092,101.6951 " fill="none" id="azure_resource_group-to-microsoft_resource" style="stroke:#1A83AF;stroke-width:2.0;"/><polygon fill="#1A83AF" points="246.82,106.41,244.397,96.8638,243.7277,102.481,238.1105,101.8116,246.82,106.41" style="stroke:#1A83AF;stroke-width:2.0;"/></g><!--link microsoft_resource to azure_authorization_role_assignment--><g id="link_microsoft_resource_azure_authorization_role_assignment"><path codeLine="34" d="M246.79,147.01 C233.29,164.15 217.3808,184.3451 203.8908,201.4851 " fill="none" id="microsoft_resource-to-azure_authorization_role_assignment" style="stroke:#1A83AF;stroke-width:2.0;"/><polygon fill="#1A83AF" points="200.18,206.2,208.8895,201.6016,203.2723,202.271,202.603,196.6538,200.18,206.2" style="stroke:#1A83AF;stroke-width:2.0;"/></g><!--SRC=[bP9FQy904CNl-HGBdWLJQTLB8HMalKYflPKIrkoiMSpkXDb9HKk_UqrjPKtyr-kytxxtPjZSA11WIruB2tOEv2E_DAwK9Ar8Y70rnW99TBIMkZzeYXDqV16OIWlY4OeFO9F99l6Qcspfm7jn4qWFCbik22kdTlPCqlcj18u3Qbn8xnDcClEA8IYZHlEXrasoQThfgtXm1oqCIG7z8hrUJyMZ9d8nwkpUUs9cDY3Yy6XJP6ZLR4NyK6TRraHGihNedtwouxDKohY5k0rcBxjEv80EvhDSAbpLj9Q53sCy0m7okeHnQoiO3PKU78MVJi5HLfzEo4r5aCgASoIpaMpGfOJ5TkIzMJYx_INYCug-3d02ZnLbaDR6PQXRan5wrBndTkhHTzstJfmC-ydalNj_JP4hNDhvqP5A_mx-1W00]--></g></svg>

<svg xmlns="http://www.w3.org/2000/svg" width="370" height="252" viewBox="0 0 370 252"><rect width="356" height="39.789" x="7" y="206.58" fill="#3D176E" rx="2.5" ry="2.5" style="stroke:#000d19;stroke-width:.5"/><circle cx="22" cy="226.475" r="11" fill="#ADD1B2" style="stroke:#181818;stroke-width:1"/><path d="M24.969 232.115q-.578.297-1.219.438-.64.156-1.344.156-2.5 0-3.828-1.64-1.312-1.657-1.312-4.782t1.312-4.781q1.328-1.656 3.828-1.656.703 0 1.344.156.656.156 1.219.453v2.719q-.625-.578-1.219-.844-.594-.281-1.219-.281-1.343 0-2.031 1.078-.687 1.062-.687 3.156t.687 3.172q.688 1.062 2.031 1.062.625 0 1.219-.265.594-.281 1.219-.86z"/><text x="41" y="232.36" fill="#D9B8FF" font-family="Helvetica" font-size="17" textLength="314">azure_authorization_role_assignment</text><rect width="225" height="39.789" x="72.5" y="7" fill="#3D176E" rx="2.5" ry="2.5" style="stroke:#000d19;stroke-width:.5"/><circle cx="87.5" cy="26.895" r="11" fill="#ADD1B2" style="stroke:#181818;stroke-width:1"/><path d="M90.469 32.535q-.578.297-1.219.438-.64.156-1.344.156-2.5 0-3.828-1.64-1.312-1.657-1.312-4.782t1.312-4.781q1.328-1.656 3.828-1.656.703 0 1.344.156.656.156 1.219.453v2.719q-.625-.578-1.219-.844-.594-.281-1.219-.281-1.344 0-2.031 1.078-.687 1.062-.687 3.156T86 29.879q.688 1.062 2.031 1.062.625 0 1.219-.265.594-.281 1.219-.86z"/><text x="106.5" y="32.78" fill="#D9B8FF" font-family="Helvetica" font-size="17" textLength="183">azure_resource_group</text><rect width="200" height="39.789" x="162" y="106.79" fill="#3D176E" rx="2.5" ry="2.5" style="stroke:#000d19;stroke-width:.5"/><circle cx="177" cy="126.684" r="11" fill="#ADD1B2" style="stroke:#181818;stroke-width:1"/><path d="M179.969 132.325q-.578.297-1.219.438-.64.156-1.344.156-2.5 0-3.828-1.64-1.312-1.657-1.312-4.782t1.312-4.781q1.328-1.656 3.828-1.656.703 0 1.344.156.656.156 1.219.453v2.719q-.625-.579-1.219-.844-.594-.281-1.219-.281-1.344 0-2.031 1.078-.687 1.062-.687 3.156t.687 3.172q.688 1.062 2.031 1.062.625 0 1.219-.265.594-.281 1.219-.86z"/><text x="196" y="132.57" fill="#D9B8FF" font-family="Helvetica" font-size="17" textLength="158">microsoft_resource</text><path fill="none" d="M171.56 47.27c-9.8 15.36-22.25 37.78-27.56 59.52-4.2 17.18-4.2 22.61 0 39.79 5.31 21.74 14.531 39.113 24.331 54.463" style="stroke:#1a83af;stroke-width:2"/><path fill="#1A83AF" d="m171.56 206.1-1.472-9.738-1.219 5.524-5.524-1.22z" style="stroke:#1a83af;stroke-width:2"/><path fill="none" d="M200.21 47.22c13.5 17.14 29.41 37.335 42.9 54.475" style="stroke:#1a83af;stroke-width:2"/><path fill="#1A83AF" d="m246.82 106.41-2.423-9.546-.67 5.617-5.617-.67z" style="stroke:#1a83af;stroke-width:2"/><path fill="none" d="M246.79 147.01c-13.5 17.14-29.41 37.335-42.9 54.475" style="stroke:#1a83af;stroke-width:2"/><path fill="#1A83AF" d="m200.18 206.2 8.71-4.598-5.618.669-.669-5.617z" style="stroke:#1a83af;stroke-width:2"/></svg>
